icons/linear-new-tool-edit-gear-setting-4.svg

<svg xmlns="http://www.w3.org/2000/svg" width="32px" height="32px" viewBox="0 0 32 32" version="1.1">
    <title>linear-new-tool-edit-gear-setting-4</title>
    <g id="linear-new-tool-edit-gear-setting-4" stroke-width="1" fill-rule="evenodd">
        <path d="M19.7469144,1.98901793 C22.2162993,2.64783272 24.4591316,3.95118567 26.2583521,5.75225816 C26.5811986,6.07543701 26.6440023,6.57631118 26.4109415,6.96919425 C25.8614715,7.89546516 25.8439869,9.0502855 26.3923048,10 C26.9410439,10.9504439 27.9513367,11.5132224 29.0295642,11.5004581 C29.4864779,11.4950491 29.888939,11.8000455 30.0072823,12.2414005 C30.3333353,13.4573983 30.5,14.7178646 30.5,16 C30.5,17.2817599 30.3334334,18.542419 30.0078282,19.7587156 C29.8895902,20.2003934 29.4868428,20.5056214 29.0296466,20.5000449 C27.9513258,20.4868926 26.9410838,21.049487 26.3923048,22 C25.8440498,22.9496055 25.8612746,24.1047567 26.4101142,25.0318248 C26.642623,25.4245653 26.5797151,25.9248999 26.2572201,26.2478587 C24.4587078,28.0489577 22.2162585,29.3521782 19.7469144,30.0109821 C19.3055006,30.1287482 18.8403986,29.9323881 18.6169329,29.5339185 C18.0895338,28.5934942 17.0975001,28 16,28 C14.9026535,28 13.9102284,28.5934062 13.3821163,29.5333826 C13.1585601,29.931286 12.6939589,30.127338 12.2529292,30.009876 C9.78472653,29.3525054 7.54209019,28.0496667 5.74270845,26.2488034 C5.42005645,25.9258857 5.35703657,25.4254586 5.58955276,25.0326274 C6.13870367,24.1048485 6.15598628,22.9496681 5.60769515,22 C5.05895612,21.0495561 4.04866333,20.4867776 2.97043575,20.4995419 C2.5135509,20.5049506 2.11110771,20.1999923 1.99273777,19.7586743 C1.66672788,18.5432134 1.5,17.2823717 1.5,16 C1.5,14.718618 1.66646844,13.4583235 1.99188467,12.2423571 C2.11002719,11.8008999 2.51240853,11.4956981 2.96937088,11.5009448 C4.04853853,11.5133353 5.05893616,10.9504785 5.60769515,10 C6.15595016,9.05039447 6.13872543,7.8952433 5.58988581,6.96817522 C5.35739649,6.57546774 5.42027251,6.07517911 5.74270716,5.75221418 C7.54053728,3.95142736 9.78343642,2.64790322 12.2530856,1.98901793 C12.6944355,1.87126884 13.1594762,2.06755438 13.3829802,2.46592671 C13.9107671,3.40665101 14.9026155,4 16,4 C17.0781397,4 18.055636,3.4273959 18.5790935,2.53437292 L18.6143485,2.47071878 C18.8366541,2.06933784 19.3035892,1.87074184 19.7469144,1.98901793 Z M19.904,4.12222246 L19.7879185,4.26428956 C18.8539028,5.3481819 17.4832271,6 16,6 C14.4899177,6 13.0978964,5.32436511 12.1642742,4.20687269 L12.097,4.12222246 L11.9804154,4.16005787 C10.4236403,4.68845025 8.98931844,5.52066097 7.75702488,6.60331508 L7.667,6.68422246 L7.72095693,6.82439951 C8.17662313,8.10566135 8.0979324,9.53709624 7.45842687,10.7822662 L7.33974596,11 C6.58481557,12.3075778 5.30376025,13.175475 3.86930211,13.4261877 L3.764,13.4412225 L3.71724061,13.6664881 C3.60202388,14.2769589 3.53211993,14.8983352 3.50876702,15.5270979 L3.5,16 C3.5,16.7907992 3.57331366,17.5711597 3.7175265,18.3340015 L3.764,18.5572225 L3.86942011,18.5740364 C5.228117,18.8112314 6.44949481,19.6027074 7.2162222,20.7972104 L7.33974596,21 C8.08685975,22.294039 8.20340364,23.8190068 7.72080717,25.1759717 L7.666,25.3152225 L7.75694428,25.3971862 C8.99006317,26.4798834 10.4242013,27.3116306 11.9799919,27.8391099 L12.096,27.8762225 L12.1642157,27.7920208 C13.0489841,26.7341653 14.3449802,26.0723165 15.7626455,26.0055786 L16,26 C17.5102417,26 18.9025007,26.6757995 19.8359674,27.7933005 L19.902,27.8772225 L20.0194825,27.8399758 C21.5760514,27.3116619 23.0101837,26.4795771 24.2428262,25.3967343 L24.332,25.3142225 L24.2790431,25.1756005 C23.8233769,23.8943386 23.9020676,22.4629038 24.5415731,21.2177338 L24.660254,21 C25.4153395,19.6921536 26.6967198,18.8242437 28.1311869,18.5742574 L28.235,18.5582225 L28.2826323,18.3341852 C28.3979162,17.7235432 28.4678612,17.1019877 28.4912278,16.4730409 L28.5,16 C28.5,15.2093462 28.4267141,14.4291922 28.28249,13.6662372 L28.235,13.4412225 L28.1305799,13.4259636 C26.771883,13.1887686 25.5505052,12.3972926 24.7837778,11.2027896 L24.660254,11 C23.9129325,9.70560116 23.7965873,8.18024827 24.2800199,6.82374297 L24.333,6.68522246 L24.2439642,6.60361059 C23.0107839,5.52064213 21.5762804,4.68841526 20.0195472,4.16004489 L19.904,4.12222246 Z M16,10 C19.3137085,10 22,12.6862915 22,16 C22,19.3137085 19.3137085,22 16,22 C12.6862915,22 10,19.3137085 10,16 C10,12.6862915 12.6862915,10 16,10 Z M16,12 C13.790861,12 12,13.790861 12,16 C12,18.209139 13.790861,20 16,20 C18.209139,20 20,18.209139 20,16 C20,13.790861 18.209139,12 16,12 Z" id="&#24418;&#29366;" fill-rule="nonzero" />
    </g>
</svg>

<svg xmlns="http://www.w3.org/2000/svg" viewBox="0 0 32 32"><path fill="currentColor" d="M19.747 1.989a14.485 14.485 0 0 1 6.511 3.763 1 1 0 0 1 .153 1.217A2.998 2.998 0 0 0 29.03 11.5a1 1 0 0 1 .977.741c.326 1.216.493 2.477.493 3.759s-.167 2.542-.492 3.759a1 1 0 0 1-.978.741 2.997 2.997 0 0 0-2.638 1.5 2.998 2.998 0 0 0 .018 3.032 1 1 0 0 1-.153 1.216 14.477 14.477 0 0 1-6.51 3.763 1 1 0 0 1-1.13-.477 2.998 2.998 0 0 0-5.235 0 1 1 0 0 1-1.13.476 14.473 14.473 0 0 1-6.51-3.761 1 1 0 0 1-.152-1.216c.549-.928.566-2.083.018-3.033a2.998 2.998 0 0 0-2.638-1.5 1 1 0 0 1-.977-.741A14.493 14.493 0 0 1 1.5 16c0-1.281.166-2.542.492-3.758a1 1 0 0 1 .977-.741 3 3 0 0 0 2.62-4.533 1 1 0 0 1 .154-1.216 14.476 14.476 0 0 1 6.51-3.763 1 1 0 0 1 1.13.477A2.996 2.996 0 0 0 16 4a2.989 2.989 0 0 0 2.58-1.466l.034-.063a1 1 0 0 1 1.133-.482m.157 2.133-.116.142A4.994 4.994 0 0 1 16 6a4.991 4.991 0 0 1-3.836-1.793l-.067-.085-.117.038a12.476 12.476 0 0 0-4.223 2.443l-.09.081.054.14a4.994 4.994 0 0 1-.263 3.958L7.34 11a4.995 4.995 0 0 1-3.47 2.426l-.106.015-.047.225c-.115.611-.185 1.232-.208 1.861L3.5 16c0 .79.073 1.571.218 2.334l.046.223.105.017a4.994 4.994 0 0 1 3.347 2.223L7.34 21a4.994 4.994 0 0 1 .38 4.176l-.054.14.09.081a12.473 12.473 0 0 0 4.224 2.442l.116.037.068-.084a4.994 4.994 0 0 1 3.599-1.786L16 26c1.51 0 2.903.676 3.836 1.793l.066.084.117-.037a12.477 12.477 0 0 0 4.224-2.443l.089-.083-.053-.138a4.994 4.994 0 0 1 .263-3.958L24.66 21a4.993 4.993 0 0 1 3.471-2.426l.104-.016.048-.224c.115-.61.185-1.232.208-1.861L28.5 16c0-.79-.073-1.57-.218-2.334l-.047-.225-.104-.015a4.994 4.994 0 0 1-3.347-2.223L24.66 11a4.991 4.991 0 0 1-.38-4.176l.053-.139-.089-.081A12.485 12.485 0 0 0 20.02 4.16zM16 10a6 6 0 1 1 0 12 6 6 0 0 1 0-12m0 2a4 4 0 1 0 0 8 4 4 0 0 0 0-8"/></svg>
